X: 20404
Q: "Plaintive and slow."
M: 3/4
L: 1/8
K: D
(DE) |\
{de}f3 e d2 | {de}f3 e d2 | e3 d (fe) | d B3 (cd) |\
{de}f2 d2 A2 | (B3 F) A>F | E3 D FE | D4 |]
d2 f2 a2 | f2 d2 A2 | (BA) (Bc) (dB) | (BA)(GF)(ED) |\


